X: 153
T: the Weavers Hornpipe
%%VWML:Wrights-3753-p77-0
F: http://www.vwml.org/record/Wrights/3753/p77
%R: triple hornpipe
B: Daniel Wright "Wright's Compleat Collection of Celebrated Country Dances" 1740 p.77
S: http://library.efdss.org/cgi-bin/dancebooks.cgi
Z: 2014 John Chambers <jc:trillian.mit.edu>
N: Repeats modified to match the "Each strain twice" instruction.
M: 3/2
L: 1/8
K: D
%-------------------------
|:\
D2F2 A2d2 fga2 | g2 e4 B2 dcBA |\
dABG AFGE FDEF | A,2 D4 F2 E2D2 :|
|:\
BdBF GBGE FAFD | C2 E4 B,2 C2E2 |\
fafc dfdA GFED | A,2 D4 GF E2D2 :|
%%center Each strain twice.
%-------------------------
%%begintext align
%% The 1st Cu. lead forward and back again, then
%% lead through the 2d Cu. and cast up in your own
%% places, then cast down again .| the 1st Cu. lead
%% down and up again, then leading thro' the 2d
%% Cu. cast down and up again :| then 1st and 2d
%% Men double figure on the We. side, the 1st
%% Man casting down into the 2d Mans place .|
%% then the two We. do the same on the Mens
%% side, then the 1st Wo. casting down :|
%%endtext
%-------------------------
%%sep 2 4 300
T: Snibsons Maggot
T: Longways for &c.
%R: jig
B: Daniel Wright "Wright's Compleat Collection of Celebrated Country Dances" 1740 p.77
S: http://library.efdss.org/cgi-bin/dancebooks.cgi
Z: 2014 John Chambers <jc:trillian.mit.edu>
N: Repeats modified to match the "Each strain twice" instruction. M: 6/8
L: 1/16
K: C
%-------------------------
|:\
(c2e2)g2 (B2d2)g2 | (G2d2)f2 efedc2 |\ edcdef g4B2 | (c2A2)d2 BcBAG2 ::\ gfefg2 B2ABG2 | agfga2 d2cdB2 | gfefg2 B2ABG2 | edcdef g6 |\
gfefg2 cBABc2 | agfga2 dcBcd2 |\ gfefg2 cBABc2 | G2c2B2 c3 :| %------------------------- %%center Each strain twice. %%begintext align
%% The 1st and 2d Cu. take hands across and go %% half round .| then the same back again :| then %% the 1st Cu. cross over and go the figure of 8 %% and turn .| then the 1st Cu. lead down betweeen %% the 3d Cu., and up again through the 2d
%% Cu. and cast off :|
%%endtext %------------------------- %%sep 2 4 300
